X:1153
L:1/8
Q:1/4=120
M:4/4
K:Bb
 F2 | BFDF BdcB | A2 c2 c2 fe | !wedge!d(BAB) !wedge!f(BAB) | A2 F2 F2 BA | BFDF EGCE | 
 B,DFd fdbf | gecA FA ce | d2 B2 B2 :: fe | dfba gfed | e2 c2 c3 d | ec c2 dB B2 | cBAG F2 BA | 
 GEBG FDBA | GEBG FDBA | GABc decA | B2 B2 B2 :|

